X:1
T:Bold MacCarteney
M:6/8
L:1/8
K:D
 G| F2 A E2 F| D2 C D2 F| G2 E D2 C| D3- D2 d| e2 e A2 A| d3 edB| A2 A EFG|\
 A3- A2 A| d2 d A2 A| d3 edB| A2 A EFG| A3- A2 A| D2 D F2 A| d2 d A2 F|\
 G2 E D2 C| D3- D2||
